src/assets/duotone/Frame2.svg

<svg width="24" height="24" viewBox="0 0 24 24"  xmlns="http://www.w3.org/2000/svg">
<path opacity="0.4" d="M21.25 9.15018C18.94 5.52017 15.56 3.43018 12 3.43018C10.22 3.43018 8.49 3.95018 6.91 4.92018C5.33 5.90018 3.91 7.33017 2.75 9.15018C1.75 10.7202 1.75 13.2702 2.75 14.8402C5.06 18.4802 8.44 20.5602 12 20.5602C13.78 20.5602 15.51 20.0402 17.09 19.0702C18.67 18.0902 20.09 16.6602 21.25 14.8402C22.25 13.2802 22.25 10.7202 21.25 9.15018ZM12 16.0402C9.76 16.0402 7.96 14.2302 7.96 12.0002C7.96 9.77018 9.76 7.96018 12 7.96018C14.24 7.96018 16.04 9.77018 16.04 12.0002C16.04 14.2302 14.24 16.0402 12 16.0402Z" />
<path d="M11.9999 9.14014C10.4299 9.14014 9.1499 10.4201 9.1499 12.0001C9.1499 13.5701 10.4299 14.8501 11.9999 14.8501C13.5699 14.8501 14.8599 13.5701 14.8599 12.0001C14.8599 10.4301 13.5699 9.14014 11.9999 9.14014Z" />
</svg>

<?xml version="1.0" encoding="UTF-8"?>
<svg width="24" height="24" viewBox="0 0 24 24" xmlns="http://www.w3.org/2000/svg">
 <path d="m21.25 9.1502c-2.31-3.63-5.69-5.72-9.25-5.72-1.78 0-3.51 0.52-5.09 1.49-1.58 0.98-3 2.41-4.16 4.23-1 1.57-1 4.12 0 5.69 2.31 3.64 5.69 5.72 9.25 5.72 1.78 0 3.51-0.52 5.09-1.49 1.58-0.98 3-2.41 4.16-4.23 1-1.56 1-4.12 0-5.69zm-9.25 6.89c-2.24 0-4.04-1.81-4.04-4.04 0-2.23 1.8-4.04 4.04-4.04s4.04 1.81 4.04 4.04c0 2.23-1.8 4.04-4.04 4.04z" opacity=".4"/>
 <path d="m12 9.1401c-1.57 0-2.85 1.28-2.85 2.86 0 1.57 1.28 2.85 2.85 2.85s2.86-1.28 2.86-2.85-1.29-2.86-2.86-2.86z"/>
</svg>
